( Made using CamBam - http://www.cambam.co.uk )
( http://www.thingiverse.com/thing:24173 )
( 070351 1/30/2013 2:10:58 AM )
( T1 : 0.3 )
G21 G90 G64 G40
G0 Z3.0
( T1 : 0.3 )
T1 M6
( Engrave1 )
G17
M3 S100
G0 X28.0922 Y49.4985
G1 F300.0 Z-1.0
G3 X27.843 Y49.1419 I0.1289 J-0.3555
G3 X28.2222 Y48.7627 I0.3782 J-0.001
G3 X28.6015 Y49.1419 I0.001 J0.3782
G3 X28.2222 Y49.5212 I-0.3782 J0.001
G3 X28.0922 Y49.4985 I-0.001 J-0.3782
G0 Z3.0
G0 X22.8777 Y41.469
G1 Z-1.0
G1 X22.8776
G1 X22.86 Y41.4602
G1 X22.8512 Y41.4514
G1 X24.1829 Y37.0593
G1 X23.6626 Y37.2092
G1 X23.6449 Y37.2181
G1 Y37.1916
G1 X24.0947 Y35.56
G1 X23.204 Y36.3273
G1 X22.4014 Y36.7771
G1 X22.3926
G1 X21.881 Y36.733
G1 X21.8722
G1 X21.8634 Y36.7242
G1 X21.687 Y36.2303
G1 X21.6782
G1 X21.59 Y35.6923
G1 X20.4258 Y36.292
G1 X20.417 Y36.3008
G1 X20.3906 Y36.3185
G1 X20.3994 Y36.2832
G1 X20.4082 Y36.2744
G1 X20.761 Y35.2778
G1 Y35.269
G1 X20.7698
G1 X22.2515 Y33.4081
G1 Y33.3992
G1 X22.1103 Y33.0906
G1 X21.881 Y32.8524
G1 X21.5371 Y32.6937
G1 X21.5283
G1 X20.7433 Y32.7731
G1 X18.9442 Y33.3287
G1 X18.9265 Y33.3375
G1 Y33.3287
G1 X18.9177 Y33.3199
G1 Y33.311
G1 X18.9353 Y33.3022
G1 X20.8844 Y31.8382
G1 X20.2847 Y31.75
G1 X20.2759
G1 X20.2671 Y31.7412
G1 X20.1877 Y31.3708
G1 X20.2318 Y30.9827
G1 X19.4028 Y30.8504
G1 X18.6178 Y30.6476
G1 X18.5826 Y30.6299
G1 X18.6178 Y30.6211
G1 X18.6267
G1 X18.6355 Y30.6123
G1 X20.4435 Y29.8274
G1 X18.9177 Y29.7392
G1 X18.9089
G1 X18.2033 Y29.4217
G1 X18.1945 Y29.4128
G1 Y29.3952
G1 X18.4062 Y28.9542
G1 Y28.9454
G1 X19.2617 Y28.4956
G1 X19.9584 Y28.1428
G1 X17.4184 Y27.6578
G1 Y27.6401
G1 Y27.6313
G1 X18.9883 Y27.3138
G1 X19.6585 Y27.0316
G1 X17.8065 Y26.3261
G1 X17.7976
G1 X17.8065 Y26.3084
G1 Y26.2996
G1 Y26.2908
G1 X20.1613 Y26.379
G1 X19.6674 Y25.8939
G1 X19.6497 Y25.8851
G1 X19.6409 Y25.8763
G1 X19.6497 Y25.8675
G1 X20.0819 Y25.6029
G1 Y25.6117
G1 X20.3906 Y25.3383
G1 X20.2583 Y24.9062
G1 X20.2494 Y24.8885
G1 X20.2671
G1 X21.3695 Y25.012
G1 X18.124 Y22.9747
G1 X18.1328 Y22.9571
G1 X18.1416 Y22.9483
G1 X18.1504 Y22.9571
G1 X20.4611 Y23.7332
G1 X19.6409 Y22.7807
G1 Y22.7719
G1 Y22.7631
G1 X19.9143 Y22.4279
G1 X19.9231 Y22.4191
G1 X19.9319
G1 X21.8193 Y23.3364
G1 X20.5669 Y21.8635
G1 X20.5758 Y21.8547
G1 X20.5846 Y21.8459
G1 Y21.8371
G1 X22.5513 Y23.0542
G1 X23.1687 Y23.2306
G1 X22.569 Y22.1546
G1 X22.5513 Y22.1193
G1 X22.5866 Y22.137
G1 X22.5954
G1 Y22.1458
G1 X23.2922 Y22.4368
G1 X22.666 Y21.1315
G1 Y21.1139
G1 X22.6748
G1 X22.9923 Y20.911
G1 X22.9482 Y20.1349
G1 X22.9394 Y20.1173
G1 X22.957
G1 X23.5215 Y20.2584
G1 X23.7949 Y19.9674
G1 X23.8037 Y19.9586
G1 X23.8125 Y19.9674
G1 X24.4387 Y20.3554
G1 X24.6768 Y19.9938
G1 X24.6856 Y19.9762
G1 X24.6944 Y19.9938
G1 X24.7033 Y20.0115
G1 X25.4441 Y20.9287
G1 X24.9061 Y18.274
G1 X24.9326 Y18.2652
G1 X25.8322 Y19.8527
G1 X25.9203 Y18.6797
G1 Y18.6709
G1 Y18.6268
G1 X25.9468 Y18.6621
G1 Y18.6709
G1 X26.5377 Y19.597
G1 X26.5818 Y17.4186
G1 Y17.4098
G1 X26.5906
G1 X26.6083
G1 X27.3932 Y20.4436
G1 X27.5784 Y18.3711
G1 Y18.3534
G1 X27.596 Y18.3622
G1 X27.6049 Y18.371
G1 X28.0194 Y18.5915
G1 X28.0282
G1 X28.4163 Y19.0942
G1 X28.8837 Y17.7449
G1 Y17.7361
G1 X28.8925 Y17.7449
G1 X28.9101
G1 X29.0953 Y20.1967
G1 X29.4481 Y20.0026
G1 X29.9244 Y19.4294
G1 X29.9332 Y19.4117
G1 X29.942 Y19.4294
G1 X30.1977 Y19.9585
G1 X30.2065
G1 X30.5417 Y20.0556
G1 X31.2208 Y19.1648
G1 X31.212
G1 X32.3232 Y17.3921
G1 Y17.3833
G1 X32.3585 Y17.3392
G1 X32.3497 Y17.3921
G1 Y17.4009
G1 X32.288 Y18.8032
G1 X31.653 Y21.0963
G1 X32.5261 Y20.1526
G1 X33.8578 Y18.6709
G1 X33.8666 Y18.6621
G1 X33.8754 Y18.6709
G1 X33.8842 Y18.6797
G1 X33.0817 Y20.7787
G1 X32.6231 Y22.0487
G1 X34.2547 Y20.4701
G1 X34.2635 Y20.4789
G1 X34.2723 Y20.4877
G1 X34.2811
G1 X32.7729 Y22.8689
G1 X34.1841 Y21.7753
G1 X34.1929 Y21.7665
G1 X34.2017 Y21.7841
G1 X34.2105
G1 Y21.7929
G1 X34.2017
G1 X33.8401 Y22.6573
G1 X35.6833 Y21.4313
G1 X35.6921 Y21.4402
G1 X35.7011 Y21.4489
G1 X34.6428 Y22.8776
G1 X35.4453 Y22.6924
G1 X35.463
G1 Y22.7012
G1 X35.5776 Y23.0893
G1 X36.9006 Y22.6836
G1 Y22.6924
G1 X36.9094 Y22.7012
G1 X36.9182 Y22.71
G1 X36.9094
G1 X35.4806 Y24.0329
G1 X37.9853 Y23.1157
G1 X38.0383 Y23.0981
G1 X38.003 Y23.1333
G1 X37.9942 Y23.1422
G1 X37.3063 Y23.9712
G1 X37.8001 Y24.2181
G1 X37.8178 Y24.2269
G1 X37.8001 Y24.2357
G1 X37.7913 Y24.2445
G1 X37.174 Y24.9413
G1 X36.8918 Y25.444
G1 X39.467 Y25.1265
G1 X39.5199
G1 X39.4758 Y25.1529
G1 X39.467 Y25.1617
G1 X38.5234 Y25.8761
G1 X38.7703 Y26.2818
G1 Y26.2906
G1 X38.7615 Y26.2994
G1 X37.7473 Y26.8991
G1 Y26.9079
G1 X36.7066 Y27.4195
G1 X36.098 Y27.8075
G1 X36.5214 Y28.1162
G1 X36.5302 Y28.125
G1 X37.562 Y28.5042
G1 X37.5885 Y28.5219
G1 X37.562 Y28.5307
G1 X37.5532
G1 X36.98 Y28.8747
G1 X37.7208 Y29.3333
G1 X37.7296
G1 X37.7649 Y29.3597
G1 X37.7208
G1 X37.712
G1 X35.6306 Y29.4215
G1 X37.7825 Y30.1711
G1 Y30.1799
G1 X38.6116 Y30.8149
G1 X38.6292
G1 Y30.8238
G1 X38.6733 Y30.8502
G1 X38.6204 Y30.8414
G1 X38.6116
G1 X36.1421 Y30.5768
G1 X37.1035 Y31.2647
G1 X38.6821 Y32.3142
G1 X38.6998 Y32.3231
G1 X38.7174 Y32.3319
G1 X38.6998 Y32.3407
G1 X38.1177 Y32.6141
G1 X38.1089
G1 X35.8158 Y31.9879
G1 X36.1863 Y32.5788
G1 X37.4827 Y33.8224
G1 X37.4915
G1 X37.5268 Y33.8577
G1 X37.4739 Y33.8488
G1 X36.248 Y33.5842
G1 X35.2161 Y33.3373
G1 X35.2073
G1 X34.8192 Y33.4872
G1 X34.4488 Y33.6283
G1 X34.44 Y33.6372
G1 X34.3077 Y33.9723
G1 Y33.9811
G1 X35.0045 Y35.207
G1 X35.0133 Y35.2158
G1 X35.0397 Y35.2599
G1 X34.9956 Y35.2335
G1 X34.9868 Y35.2247
G1 X33.8667 Y34.5897
G1 X33.6815 Y34.9072
G1 X33.6727 Y34.9248
G1 X33.6551 Y34.916
G1 X32.6585 Y34.1663
G1 X33.2582 Y35.5863
G1 X33.267 Y35.5951
G1 X33.2494 Y35.6039
G1 X33.2406
G1 Y35.6127
G1 X32.3233 Y34.819
G1 X32.8702 Y36.4417
G1 Y36.4506
G1 X32.8878 Y36.5035
G1 X32.8525 Y36.4682
G1 X32.8437 Y36.4594
G1 X32.05 Y35.7538
G1 X32.341 Y37.2267
G1 Y37.2355
G1 X32.3234
G1 X32.3146
G1 X31.3091 Y35.8508
G1 X31.5649 Y37.5795
G1 X31.5561
G1 X31.5385 Y37.5883
G1 X30.4272 Y35.3834
G1 X30.8241 Y38.0733
G1 X30.8064 Y38.0822
G1 X30.7976
G1 X30.7888
G1 Y38.0557
G1 X29.9332 Y36.1244
G1 X29.7656 Y37.0681
G1 X29.7568 Y37.1034
G1 X29.7392 Y37.0681
G1 X29.7304 Y37.0593
G1 Y37.0505
G1 X29.2629 Y36.2479
G1 X29.1748 Y39.1848
G1 X29.1659
G1 X29.1483 Y39.1936
G1 Y39.1848
G1 X28.5839 Y37.0417
G1 X28.2311 Y36.2303
G1 X27.8342 Y37.5885
G1 X27.3139 Y38.9731
G1 Y38.9819
G1 X27.2962 Y39.0172
G1 X27.2874 Y38.9731
G1 Y38.9643
G1 X26.9787 Y37.756
G1 X26.7935 Y36.4331
G1 X26.4319 Y36.5037
G1 X26.0703
G1 X25.0649 Y38.5057
G1 Y38.5145
G1 X25.0561
G1 X24.4475 Y38.8673
G1 X22.8777 Y41.4602
G1 Y41.469
G0 Z3.0
G0 X24.1476 Y51.8054
G1 Z-1.0
G1 X22.9129 Y52.7491
G1 X22.9041
G1 X22.8953
G1 X21.9075 Y52.3258
G1 X20.0201 Y54.8658
G1 X20.0113
G1 X20.0025
G1 X18.8648 Y54.5218
G1 X18.856
G1 Y54.513
G1 X18.0181 Y53.3929
G1 X17.2508 Y52.2905
G1 Y52.2817
G1 X16.6158 Y51.0469
G1 Y51.0381
G1 X16.2278 Y49.5035
G1 X14.896 Y49.7152
G1 X14.8872
G1 X12.7882 Y50.8794
G1 X12.7794
G1 X11.6417 Y50.4472
G1 X11.6328 Y50.4384
G1 X10.8038 Y49.5917
G1 X10.795
G1 Y49.5829
G1 X10.5392 Y48.1101
G1 X8.7401 Y48.3482
G1 X8.7313
G1 X7.9463 Y47.4486
G1 X7.9375 Y47.4398
G1 Y47.431
G1 X9.966 Y44.0972
G1 Y44.0884
G1 X9.719 Y42.9683
G1 X9.4809 Y41.9012
G1 Y41.8924
G1 X8.3344 Y41.4867
G1 X6.791 Y41.2309
G1 X4.9301 Y41.0281
G1 X4.9036 Y41.0192
G1 X4.9213 Y41.0016
G1 X6.791 Y38.8144
G1 X5.9796 Y38.0735
G1 X5.3799 Y37.1916
G1 X3.5013 Y36.7418
G1 X3.4837
G1 X3.4572 Y36.733
G1 X3.4837 Y36.7153
G1 X3.4925
G1 X5.8032 Y34.8721
G1 X3.4308 Y34.4576
G1 X3.3955 Y34.4488
G1 X3.4219 Y34.4311
G1 X3.4308
G1 X5.4945 Y32.9053
G1 X1.6933 Y32.5261
G1 X1.6845
G1 Y32.5085
G1 X1.8874 Y31.3267
G1 X1.7815 Y30.2066
G1 Y30.1978
G1 Y30.189
G1 X2.8399 Y29.0248
G1 X4.0834 Y27.9665
G1 X0.7673 Y26.767
G1 X0.7497 Y26.7582
G1 X0.7585 Y26.7494
G1 X1.27 Y25.6205
G1 Y25.6117
G1 X2.7517 Y24.6592
G1 X1.2347 Y23.2834
G1 X1.2259 Y23.2746
G1 X1.1994 Y23.2569
G1 X1.2347 Y23.2481
G1 X5.0535 Y22.9218
G1 X4.1628 Y21.6518
G1 X4.154 Y21.643
G1 X4.1363 Y21.6254
G1 X4.1628
G1 X4.1716
G1 X6.5088 Y21.2638
G1 X5.1506 Y19.7468
G1 X5.1417 Y19.738
G1 X5.1506 Y19.7292
G1 X5.9178 Y18.9178
G1 X5.7503 Y17.7007
G1 X3.3426 Y15.2578
G1 X3.3338 Y15.2489
G1 X3.3073 Y15.2225
G1 X3.3426 Y15.2313
G1 X3.3514
G1 X6.3235 Y15.5753
G1 X6.4911 Y14.4111
G1 X6.5088 Y13.0882
G1 Y13.0705
G1 X6.5264
G1 X9.0311 Y13.5821
G1 X7.5053 Y10.9803
G1 X7.4965
G1 Y10.9715
G1 X7.4701 Y10.9363
G1 X7.5142 Y10.9539
G1 X11.0508 Y12.6031
G1 X11.5182 Y11.7124
G1 Y11.7036
G1 X11.7299 Y10.4688
G1 X11.7387 Y10.4512
G1 X11.7563
G1 X13.5555 Y10.9892
G1 X13.7583 Y9.6927
G1 X13.9171 Y8.1934
G1 X13.7672 Y6.0415
G1 Y6.015
G1 X13.7848 Y6.0238
G1 X13.7936 Y6.0326
G1 X15.5222 Y6.7558
G1 X15.531
G1 X16.3777 Y6.112
G1 X16.3865 Y6.1032
G1 X17.4801 Y5.9092
G1 X18.1592 Y4.8332
G1 Y4.8244
G1 X18.1681
G1 X19.4381 Y5.1419
G1 X19.8173 Y2.9635
G1 Y2.9459
G1 X19.8261 Y2.9194
G1 X19.8438 Y2.9459
G1 Y2.9547
G1 X21.6253 Y5.08
G1 X22.0751 Y2.6194
G1 X22.0839 Y2.5929
G1 X22.1015 Y2.6106
G1 X23.5038 Y3.9952
G1 X24.3681 Y2.6988
G1 Y2.69
G1 X24.3858
G1 X25.5323 Y3.1309
G1 X26.5289 Y2.0108
G1 X26.5377
G1 X27.649 Y1.4905
G1 X27.6578 Y1.4817
G1 X27.6666 Y1.4905
G1 X28.7602 Y2.9898
G1 X29.8891 Y2.1608
G1 X29.8979 Y2.1519
G1 X29.9067 Y2.1696
G1 Y2.1784
G1 X30.7446 Y4.7889
G1 X31.8558 Y4.0569
G1 X31.8646
G1 X32.8612 Y4.3744
G1 X32.87
G1 X34.1665 Y3.3514
G1 X34.1841 Y3.3426
G1 X34.1929 Y3.3602
G1 X34.7926 Y5.1947
G1 X36.1332 Y4.348
G1 X38.3381 Y1.5787
G1 X38.3469 Y1.5699
G1 X38.3557 Y1.5875
G1 Y1.5963
G1 X39.0965 Y2.9457
G1 Y2.9545
G1 X38.7261 Y6.4294
G1 X40.0225 Y6.1471
G1 X40.0313
G1 X42.0598 Y4.8154
G1 X42.0775 Y4.8066
G1 Y4.833
G1 X41.9981 Y7.0732
G1 X42.7301 Y7.8934
G1 X44.3 Y7.6023
G1 X44.3176 Y7.5935
G1 X44.3089 Y7.62
G1 X44.3001 Y7.6288
G1 X43.3299 Y10.4775
G1 X45.5172 Y9.5691
G1 X45.526 Y9.5603
G1 X45.5436 Y9.5515
G1 Y9.5691
G1 X45.3319 Y11.2801
G1 X48.8685 Y9.4545
G1 X48.8773 Y9.4457
G1 X48.9126 Y9.428
G1 X48.895 Y9.4721
G1 X47.1046 Y12.4972
G1 X48.8862 Y12.4354
G1 X48.9126
G1 X48.9038 Y12.4531
G1 X48.2071 Y14.2875
G1 X50.1738 Y14.2523
G1 X50.2003
G1 X50.1914 Y14.2699
G1 X49.2919 Y16.0514
G1 X53.4017 Y15.0725
G1 X53.4282 Y15.0637
G1 X53.4105 Y15.0901
G1 X53.4017
G1 Y15.0989
G1 X52.458 Y16.8804
G1 X52.1405 Y18.2386
G1 Y18.2474
G1 X52.2905 Y19.3675
G1 Y19.3763
G1 X51.8495 Y20.6463
G1 X55.4567 Y20.7521
G1 X55.4919
G1 X55.4655 Y20.7786
G1 X55.4567
G1 X53.6928 Y22.4102
G1 X54.857 Y23.3186
G1 X54.8658 Y23.3274
G1 X54.857 Y23.345
G1 X53.7457 Y24.6679
G1 X52.3963 Y25.8938
G1 X52.317 Y26.9345
G1 X52.1053 Y27.9664
G1 X54.3983 Y29.0512
G1 X54.416 Y29.06
G1 X54.3983 Y29.0689
G1 X54.3895 Y29.0777
G1 X53.4106 Y30.1008
G1 Y30.1096
G1 X53.9486 Y31.2561
G1 X53.9574 Y31.2649
G1 X53.9397 Y31.2738
G1 X52.0171 Y32.0675
G1 X53.2342 Y33.364
G1 X53.243
G1 X53.7104 Y34.6075
G1 X53.7192 Y34.6251
G1 X53.7016
G1 X51.3997 Y35.1102
G1 X51.3909
G1 X50.3502 Y35.8246
G1 X54.5835 Y38.5498
G1 X54.5923 Y38.5586
G1 X54.5835 Y38.5674
G1 X54.0191 Y39.6434
G1 X54.0103 Y39.6522
G1 X54.0015
G1 X49.4947 Y38.7526
G1 X51.0029 Y40.7194
G1 X51.7437 Y42.4656
G1 X51.7525 Y42.4833
G1 X51.7349
G1 X49.9886 Y42.739
G1 X48.3041 Y42.8978
G1 X46.2668 Y42.6156
G1 X46.3903 Y44.0178
G1 Y44.0267
G1 X45.5436 Y44.644
G1 X45.6671 Y46.2139
G1 Y46.2227
G1 X45.6583 Y46.2315
G1 X44.7322 Y46.8048
G1 X43.4181 Y46.8665
G1 X43.4093
G1 X42.4568 Y47.2987
G1 X41.522 Y47.7397
G1 X40.3754 Y47.7926
G1 X40.6665 Y50.2973
G1 Y50.3149
G1 X40.6488 Y50.3061
G1 X40.64 Y50.2973
G1 X39.1936 Y49.8122
G1 X39.1407 Y52.1494
G1 Y52.167
G1 Y52.1935
G1 X39.1143 Y52.1758
G1 X37.2357 Y50.4913
G1 X37.1299 Y53.1989
G1 Y53.2165
G1 Y53.243
G1 X37.1034 Y53.2253
G1 X35.4453 Y51.6467
G1 X34.925 Y53.7369
G1 Y53.7457
G1 Y53.7722
G1 X34.9074 Y53.7545
G1 X33.4522 Y52.3258
G1 X32.6319 Y53.6928
G1 X32.6231 Y53.7104
G1 X32.6143 Y53.7016
G1 X31.3708 Y52.6609
G1 X30.4712 Y54.3101
G1 Y54.319
G1 X30.4624
G1 X29.36 Y54.6717
G1 X29.3423 Y54.6806
G1 Y54.6629
G1 X28.2134 Y51.4703
G1 X27.1375 Y53.9574
G1 X25.8851 Y55.6154
G1 X25.8675 Y55.6331
G1 X25.8674
G1 X25.8586 Y55.6066
G1 X24.9767 Y53.2959
G1 X24.1476 Y51.8054
( Engrave2 )
S15
G0 Z3.0
G0 X28.2046 Y49.1419
G1 Z-1.0
G1 Y38.4704
G1 X28.2399
G1 Y49.1419
G1 X28.2046
G0 Z3.0
G0 X26.1877 Y46.2419
G1 Z-1.0
G1 Y43.8077
G1 X25.89
G1 Y45.7044
G2 X25.6081 Y45.4994 I-1.0699 J1.1748
G2 X25.2947 Y45.3456 I-1.0613 J1.7664
G1 Y45.6333
G3 X25.7313 Y45.9178 I-0.7352 J1.6057
G3 X25.8786 Y46.0676 I-0.9789 J1.1102
G3 X25.9959 Y46.2419 I-0.6633 J0.5727
G1 X26.1877
G0 Z3.0
G0 X24.3025
G1 Z-1.0
G1 Y43.8077
G1 X24.0049
G1 Y45.7044
G2 X23.7229 Y45.4994 I-1.07 J1.1749
G2 X23.4096 Y45.3456 I-1.0621 J1.7681
G1 Y45.6333
G3 X23.8461 Y45.9178 I-0.7352 J1.6057
G3 X23.9935 Y46.0676 I-0.9786 J1.1099
G3 X24.1107 Y46.2419 I-0.6636 J0.5729
G1 X24.3025
G0 Z3.0
G0 X22.7853 Y45.702
G1 Z-1.0
G2 X22.8225 Y45.5763 I-1.1433 J-0.4068
G2 X22.8666 Y45.2914 I-1.8096 J-0.4256
G2 X22.8771 Y45.0033 I-2.7865 J-0.2461
G2 X22.8597 Y44.6556 I-2.6914 J-0.0394
G2 X22.7894 Y44.3146 I-1.6367 J0.1593
G2 X22.6872 Y44.0934 I-1.1146 J0.3811
G2 X22.5273 Y43.9094 I-0.6193 J0.3767
G2 X22.3197 Y43.7989 I-0.3883 J0.4792
G2 X22.0866 Y43.7664 I-0.228 J0.7824
G2 X21.7811 Y43.8259 I-0.0088 J0.7688
G2 X21.536 Y44.0177 I0.2558 J0.5794
G2 X21.4099 Y44.2432 I0.7323 J0.5576
G2 X21.319 Y44.6182 I1.4351 J0.5462
G2 X21.2962 Y45.0033 I3.1324 J0.3788
G2 X21.2964 Y45.0471 I0.2274 J0.0207
G2 X21.3162 Y45.3745 I2.9429 J-0.0137
G2 X21.3847 Y45.6953 I1.4918 J-0.1505
G2 X21.4874 Y45.9162 I1.0095 J-0.3354
G2 X21.6476 Y46.0997 I0.6565 J-0.4115
G2 X21.8546 Y46.2095 I0.3743 J-0.4555
G2 X22.0866 Y46.2419 I0.2173 J-0.7095
G2 X22.429 Y46.1633 I0.0148 J-0.7206
G2 X22.672 Y45.9368 I-0.3147 J-0.5814
G2 X22.7853 Y45.702 I-1.0301 J-0.6416
G0 Z3.0
G0 X22.5081 Y45.6257
G1 Z-1.0
G3 X22.5054 Y45.6355 I-1.3339 J-0.3669
G3 X22.4314 Y45.7987 I-0.5264 J-0.1403
G3 X22.2826 Y45.9416 I-0.419 J-0.2874
G3 X22.0833 Y45.9955 I-0.196 J-0.3296
G3 X21.7559 Y45.8219 I-0.0076 J-0.3812
G3 X21.6695 Y45.6292 I0.5631 J-0.3682
G3 X21.6151 Y45.3185 I1.5866 J-0.438
G3 X21.6021 Y45.0033 I2.92 J-0.2781
G3 X21.6235 Y44.5975 I3.3254 J-0.0284
G3 X21.661 Y44.3965 I1.4795 J0.1722
G3 X21.7419 Y44.2087 I0.5716 J0.1347
G3 X21.889 Y44.0658 I0.4259 J0.2912
G3 X22.0866 Y44.0111 I0.1949 J0.3196
G3 X22.2845 Y44.0661 I0.0019 J0.3763
G3 X22.4314 Y44.2095 I-0.2809 J0.4348
G3 X22.5121 Y44.3971 I-0.5287 J0.3387
G3 X22.56 Y44.6984 I-1.8708 J0.4516
G3 X22.5712 Y45.0033 I-3.0108 J0.263
G1 X22.5701 Y45.105
G3 X22.5429 Y45.4603 I-2.695 J-0.0274
G3 X22.5081 Y45.6257 I-1.3687 J-0.2015
G0 Z3.0
G0 X20.9721 Y45.5951
G1 Z-1.0
G2 Y45.5688 I-0.6349 J-0.0126
G2 X20.9126 Y45.2828 I-0.71 J-0.0015
G2 X20.7149 Y44.9868 I-1.0285 J0.4726
G2 X20.6062 Y44.8738 I-1.055 J0.9068
G2 X20.2561 Y44.5601 I-4.9622 J5.1867
G1 X20.0811 Y44.4109
G3 X20.0725 Y44.4036 I1.8178 J-2.1403
G3 X19.9121 Y44.255 I1.8265 J-2.1329
G3 X19.7864 Y44.0938 I0.6915 J-0.6686
G1 X20.9754
G1 Y43.8077
G1 X19.373
G2 X19.4077 Y44.0144 I0.5171 J0.0194
G2 X19.6037 Y44.3369 I1.0235 J-0.4012
G2 X19.7906 Y44.5287 I1.9224 J-1.6859
G1 X19.8905 Y44.6178
G1 X19.9033 Y44.6288
G1 X19.9931 Y44.704
G1 X20.1352 Y44.8232
G3 X20.341 Y45.0106 I-3.362 J3.9001
G3 X20.4382 Y45.1104 I-0.8524 J0.9272
G1 X20.4615 Y45.1364
G3 X20.5273 Y45.2174 I-0.8714 J0.7741
G3 X20.6249 Y45.3855 I-0.7364 J0.5403
G3 X20.6662 Y45.5755 I-0.4589 J0.1991
G3 X20.5397 Y45.8739 I-0.3971 J0.0078
G3 X20.3868 Y45.9677 I-0.2815 J-0.2876
G3 X20.2098 Y45.9955 I-0.1741 J-0.5307
G3 X20.0246 Y45.9662 I-0.0079 J-0.5509
G3 X19.8658 Y45.8665 I0.1352 J-0.3914
G3 X19.7645 Y45.701 I0.2877 J-0.2898
G3 X19.7352 Y45.5093 I0.6252 J-0.1939
G1 X19.4292 Y45.5407
G2 X19.4964 Y45.8247 I0.9206 J-0.0677
G2 X19.6657 Y46.0625 I0.5978 J-0.2467
G2 X19.9245 Y46.2028 I0.4439 J-0.5096
G2 X20.2164 Y46.2419 I0.2833 J-1.0075
G2 X20.5115 Y46.1994 I0.0089 J-0.9841
G2 X20.7687 Y46.0484 I-0.2026 J-0.6397
G2 X20.9721 Y45.5951 I-0.4314 J-0.4659
G0 Z3.0
G0 X30.0021
G1 Z-1.0
G1 Y45.6333
G3 X30.4387 Y45.9178 I-0.7354 J1.606
G3 X30.586 Y46.0676 I-0.9793 J1.1106
G3 X30.7032 Y46.2419 I-0.6637 J0.573
G1 X30.8951
G1 Y43.8077
G1 X30.5974
G1 Y45.7044
G2 X30.3155 Y45.4994 I-1.0699 J1.1748
G2 X30.0021 Y45.3456 I-1.0613 J1.7664
G1 Y45.5951
G0 Z3.0
G0 X31.6606 Y45.4958
G1 Z-1.0
G2 X31.7083 Y45.7419 I0.9519 J-0.057
G2 X31.8765 Y46.017 I0.6933 J-0.2349
G2 X32.4213 Y46.2419 I0.526 J-0.5018
G2 X32.8538 Y46.1145 I0.004 J-0.7843
G2 X33.1514 Y45.7516 I-0.4434 J-0.6672
G2 X33.2044 Y45.5863 I-0.7205 J-0.3223
G2 X33.2431 Y45.3292 I-2.0003 J-0.432
G1 X33.2444 Y45.313
G2 X33.2511 Y45.1913 I-1.4482 J-0.1408
G1 X33.2526 Y45.1304
G1 X33.2531 Y45.0694
G2 X33.2334 Y44.6953 I-3.049 J-0.0266
G2 X33.1523 Y44.3294 I-1.6667 J0.1777
G2 X33.0339 Y44.0971 I-0.9174 J0.3209
G2 X32.8521 Y43.9102 I-0.6489 J0.4495
G2 X32.385 Y43.7664 I-0.4495 J0.6291
G2 X32.1379 Y43.8021 I-0.0145 J0.7712
G2 X31.9203 Y43.9243 I0.1924 J0.5977
G2 X31.7704 Y44.1261 I0.3819 J0.4403
G2 X31.7037 Y44.3683 I0.7427 J0.3348
G1 X31.9898 Y44.3948
G3 X32.0353 Y44.237 I0.652 J0.1028
G3 X32.1287 Y44.1021 I0.3455 J0.1393
G3 X32.3916 Y44.0111 I0.2476 J0.2902
G3 X32.6322 Y44.0739 I0.0084 J0.4597
G3 X32.8017 Y44.2418 I-0.2655 J0.4376
G3 X32.8679 Y44.3794 I-0.543 J0.3459
G3 X32.9125 Y44.5254 I-0.8851 J0.3502
G3 X32.9572 Y44.8892 I-1.4811 J0.3664
G1 X32.9566 Y44.919
G3 X32.9555 Y44.9487 I-0.2824 J0.0042
G2 X32.7116 Y44.718 I-0.5775 J0.3664
G2 X32.3767 Y44.6296 I-0.333 J0.5825
G2 X31.8674 Y44.8479 I-0.011 J0.6777
G2 X31.7062 Y45.1149 I0.5216 J0.497
G2 X31.659 Y45.4233 I0.9432 J0.302
G2 X31.6606 Y45.4958 I0.9535 J0.0155
G0 Z3.0
G0 X31.9668 Y45.4735
G1 Z-1.0
G3 X31.965 Y45.4134 I0.71 J-0.0518
G3 X31.9971 Y45.2113 I0.6335 J-0.0028
G3 X32.1047 Y45.0372 I0.4404 J0.1519
G3 X32.4495 Y44.8925 I0.3344 J0.3138
G3 X32.6353 Y44.9276 I0.0044 J0.4859
G3 X32.7893 Y45.0372 I-0.1642 J0.3938
G3 X32.894 Y45.225 I-0.3523 J0.3193
G3 X32.9224 Y45.4382 I-0.751 J0.2088
G3 X32.8927 Y45.6545 I-0.7325 J0.0094
G3 X32.786 Y45.845 I-0.4734 J-0.14
G3 X32.4578 Y45.9955 I-0.3257 J-0.2773
G3 X32.1121 Y45.8334 I0.002 J-0.4538
G3 X31.9984 Y45.6375 I0.3845 J-0.3542
G3 X31.9668 Y45.4735 I0.6784 J-0.2157
G0 Z3.0
G0 X33.5756 Y45.6135
G1 Z-1.0
G2 X33.6587 Y45.8673 I0.8856 J-0.1495
G2 X33.8237 Y46.0773 I0.6228 J-0.3193
G2 X34.3049 Y46.2419 I0.4592 J-0.5569
G2 X34.6703 Y46.1567 I0.0062 J-0.7999
G2 X34.9258 Y45.9244 I-0.265 J-0.548
G2 X35.0143 Y45.6118 I-0.5114 J-0.3136
G2 X34.93 Y45.3258 I-0.5148 J-0.0037
G2 X34.6803 Y45.1207 I-0.4755 J0.3244
G2 X34.8658 Y45.0478 I-0.1319 J-0.6078
G2 X35.0143 Y44.9148 I-0.2609 J-0.441
G2 X35.1065 Y44.7292 I-0.4342 J-0.3313
G2 X35.1334 Y44.5237 I-0.6915 J-0.195
G2 X34.9018 Y43.9855 I-0.7158 J-0.011
G2 X34.6311 Y43.8167 I-0.534 J0.5551
G2 X34.3165 Y43.7647 I-0.3046 J0.865
G2 X34.0333 Y43.8091 I-0.0148 J0.8303
G2 X33.7865 Y43.9549 I0.2188 J0.6524
G2 X33.5459 Y44.4477 I0.4961 J0.5473
G1 X33.8435 Y44.4874
G3 X33.9027 Y44.2916 I1.1266 J0.2341
G3 X34.018 Y44.1227 I0.4373 J0.1746
G3 X34.3181 Y44.0111 I0.2909 J0.3229
G3 X34.6728 Y44.1566 I0.0097 J0.4815
G3 X34.8175 Y44.5171 I-0.3455 J0.348
G3 X34.7856 Y44.7001 I-0.4859 J0.0096
G3 X34.6836 Y44.8553 I-0.4024 J-0.1535
G3 X34.3429 Y44.9884 I-0.3255 J-0.3305
G3 X34.1329 Y44.9553 I0.0508 J-1.006
G1 X34.166 Y45.2166
G1 X34.2139 Y45.2133
G3 X34.5562 Y45.3125 I0.0062 J0.6187
G3 X34.6734 Y45.445 I-0.1711 J0.2694
G3 X34.7084 Y45.6185 I-0.3691 J0.1646
G3 X34.5976 Y45.8897 I-0.3641 J0.0095
G3 X34.3115 Y45.9971 I-0.2702 J-0.2847
G3 X34.0221 Y45.888 I-0.0118 J-0.4068
G3 X33.9205 Y45.7366 I0.3072 J-0.316
G3 X33.8733 Y45.5606 I0.6481 J-0.2682
G1 X33.5756 Y45.6135
G0 Z3.0
G0 X35.431 Y45.4981
G1 Z-1.0
G2 X35.4786 Y45.7419 I0.9517 J-0.0592
G2 X35.6468 Y46.017 I0.6934 J-0.2349
G2 X36.1917 Y46.2419 I0.526 J-0.5018
G2 X36.6241 Y46.1145 I0.004 J-0.7844
G2 X36.9217 Y45.7516 I-0.4435 J-0.6672
G2 X36.9748 Y45.5863 I-0.7207 J-0.3224
G2 X37.0134 Y45.3292 I-2.0012 J-0.4322
G1 X37.0147 Y45.313
G2 X37.0214 Y45.1913 I-1.4482 J-0.1408
G1 X37.0229 Y45.1304
G1 X37.0234 Y45.0694
G2 X37.0037 Y44.6953 I-3.0495 J-0.0266
G2 X36.9226 Y44.3294 I-1.6666 J0.1776
G2 X36.8042 Y44.0971 I-0.9175 J0.321
G2 X36.6224 Y43.9102 I-0.649 J0.4496
G2 X36.1553 Y43.7664 I-0.4494 J0.6289
G2 X35.9082 Y43.8021 I-0.0145 J0.7717
G2 X35.6906 Y43.9243 I0.1924 J0.5976
G2 X35.5407 Y44.1261 I0.3821 J0.4404
G2 X35.474 Y44.3683 I0.7427 J0.3348
G1 X35.7601 Y44.3948
G3 X35.8056 Y44.237 I0.652 J0.1028
G3 X35.899 Y44.1021 I0.3455 J0.1393
G3 X36.1619 Y44.0111 I0.2476 J0.2902
G3 X36.4025 Y44.0739 I0.0085 J0.4594
G3 X36.572 Y44.2418 I-0.2655 J0.4376
G3 X36.6382 Y44.3794 I-0.5439 J0.3464
G3 X36.6828 Y44.5254 I-0.8859 J0.3505
G3 X36.7275 Y44.8892 I-1.4816 J0.3665
G1 X36.7269 Y44.919
G3 X36.7258 Y44.9487 I-0.2825 J0.0042
G2 X36.4819 Y44.718 I-0.5776 J0.3664
G2 X36.147 Y44.6296 I-0.333 J0.5825
G2 X35.6377 Y44.8479 I-0.011 J0.6778
G2 X35.4765 Y45.1149 I0.5215 J0.497
G2 X35.4293 Y45.4233 I0.9433 J0.302
G2 X35.431 Y45.4981 I0.9534 J0.0155
G0 Z3.0
G0 X35.7372 Y45.4751
G1 Z-1.0
G3 X35.7353 Y45.4134 I0.7098 J-0.0533
G3 X35.7674 Y45.2113 I0.6335 J-0.0028
G3 X35.875 Y45.0372 I0.4404 J0.1519
G3 X36.2198 Y44.8925 I0.3344 J0.3137
G3 X36.4056 Y44.9276 I0.0044 J0.4856
G3 X36.5596 Y45.0372 I-0.1643 J0.3939
G3 X36.6643 Y45.225 I-0.3523 J0.3193
G3 X36.6927 Y45.4382 I-0.7509 J0.2087
G3 X36.663 Y45.6545 I-0.7325 J0.0095
G3 X36.5563 Y45.845 I-0.4734 J-0.14
G3 X36.2281 Y45.9955 I-0.3257 J-0.2773
G3 X35.8825 Y45.8334 I0.0019 J-0.4537
G3 X35.7687 Y45.6375 I0.3844 J-0.3541
G3 X35.7372 Y45.4751 I0.6783 J-0.2157
G0 Z3.0
G0 X34.4356 Y9.8102
G1 Z-1.0
G2 X34.5556 Y9.8003 I-0.0476 J-1.3032
G2 X34.736 Y9.7581 I-0.0691 J-0.7014
G2 X34.8478 Y9.7047 I-0.1733 J-0.5067
G2 X34.9427 Y9.6249 I-0.1962 J-0.3299
G2 X35.0353 Y9.4224 I-0.3725 J-0.2928
G2 X35.0439 Y9.3541 I-0.5143 J-0.0995
G2 X35.0502 Y9.1479 I-1.8721 J-0.1602
G1 Y8.751
G1 X35.0527 Y8.4882
G3 X35.0573 Y8.3568 I3.4626 J0.0555
G1 X35.0592 Y8.324
G3 X35.0692 Y8.2259 I0.5617 J0.0077
G3 X35.1444 Y8.0151 I0.6541 J0.1146
G1 X34.8335
G2 X34.774 Y8.2317 I0.5686 J0.2729
G2 X34.6231 Y8.1191 I-1.1531 J1.3865
G2 X34.4556 Y8.0333 I-0.4946 J0.7595
G2 X34.1274 Y7.9754 I-0.3181 J0.8445
G2 X33.8919 Y8.0047 I-0.0194 J0.8068
G2 X33.6826 Y8.1168 I0.1335 J0.5006
G2 X33.5271 Y8.4781 I0.3108 J0.3478
G2 X33.5858 Y8.7138 I0.4884 J0.0035
G2 X33.7396 Y8.8849 I0.4365 J-0.2375
G2 X33.9538 Y8.9825 I0.4089 J-0.6137
G2 X34.0192 Y8.9972 I0.2077 J-0.7722
G2 X34.1185 Y9.0138 I0.4405 J-2.3212
G2 X34.2183 Y9.0271 I0.2501 J-1.4962
G3 X34.4862 Y9.0659 I-0.4235 J3.8698
G3 X34.6188 Y9.0928 I-0.2135 J1.3928
G3 X34.7492 Y9.1297 I-0.1606 J0.817
G1 X34.7509 Y9.2074
G3 X34.7352 Y9.3443 I-0.5547 J0.0058
G3 X34.6665 Y9.4637 I-0.2382 J-0.0575
G3 X34.506 Y9.5445 I-0.2449 J-0.2865
G3 X34.3275 Y9.5646 I-0.1663 J-0.6762
G3 X34.167 Y9.5509 I0.0031 J-0.9867
G3 X34.0175 Y9.491 I0.0552 J-0.3544
G3 X33.9218 Y9.3731 I0.206 J-0.265
G3 X33.8695 Y9.2305 I0.5373 J-0.2781
G1 X33.5784 Y9.2702
G2 X33.6265 Y9.4286 I0.8518 J-0.1719
G2 X33.7091 Y9.572 I0.5133 J-0.2001
G2 X33.8281 Y9.6789 I0.4036 J-0.3298
G2 X33.972 Y9.749 I0.3901 J-0.6183
G2 X34.3705 Y9.811 I0.3826 J-1.1473
G2 X34.4356 Y9.8102 I0.0176 J-1.3039
G0 Z3.0
G0 X34.7492 Y8.8965
G1 Z-1.0
G2 X34.5091 Y8.827 I-0.4894 J1.2404
G2 X34.3864 Y8.8034 I-1.0623 J5.201
G2 X34.263 Y8.7841 I-0.3074 J1.5566
G3 X34.1315 Y8.7615 I0.1602 J-1.3254
G3 X34.0034 Y8.7245 I0.1503 J-0.7624
G3 X33.886 Y8.6278 I0.1009 J-0.2421
G3 X33.8446 Y8.4864 I0.2187 J-0.1407
G3 X33.9347 Y8.288 I0.2519 J-0.0053
G3 X34.0595 Y8.2246 I0.2027 J0.2444
G3 X34.1985 Y8.2086 I0.1374 J0.5821
G3 X34.5044 Y8.2838 I0.0092 J0.6221
G3 X34.7012 Y8.4897 I-0.2162 J0.4036
G3 X34.7403 Y8.6361 I-0.4387 J0.1956
G3 X34.7492 Y8.7874 I-0.915 J0.1293
G1 Y8.8965
G0 Z3.0
G0 X33.3452 Y9.4389
G1 Z-1.0
G3 X33.1269 Y9.5034 I-0.2256 J-0.3619
G3 X32.9516 Y9.4447 I-0.0041 J-0.279
G3 X32.8409 Y9.2818 I0.1996 J-0.2549
G3 X32.7912 Y8.9345 I1.0625 J-0.329
G1 Y8.0151
G1 X32.4936
G1 Y9.7713
G1 X32.7615
G1 Y9.505
G2 X32.8436 Y9.6378 I1.0507 J-0.558
G2 X32.9508 Y9.7514 I0.3928 J-0.2634
G2 X33.1418 Y9.811 I0.1896 J-0.2722
G2 X33.4477 Y9.7151 I-0.0171 J-0.5903
G1 X33.3452 Y9.4389
G0 Z3.0
G0 X32.3166 Y9.7151
G1 Z-1.0
G1 X32.2141 Y9.4389
G3 X31.9958 Y9.5034 I-0.2256 J-0.3619
G3 X31.8206 Y9.4447 I-0.004 J-0.2791
G3 X31.7098 Y9.2818 I0.1994 J-0.2548
G3 X31.6602 Y8.9345 I1.0625 J-0.329
G1 Y8.0151
G1 X31.3625
G1 Y9.7713
G1 X31.6304
G1 Y9.505
G2 X31.7125 Y9.6378 I1.0507 J-0.558
G2 X31.8197 Y9.7514 I0.3928 J-0.2634
G2 X32.0107 Y9.811 I0.1896 J-0.2723
G2 X32.3166 Y9.7151 I-0.0171 J-0.5903
G0 Z3.0
G0 X30.9459 Y9.2792
G1 Z-1.0
G2 X30.9532 Y9.2551 I-0.7485 J-0.238
G2 X31.0003 Y8.8965 I-1.2285 J-0.344
G1 X30.9987 Y8.8171
G1 X29.689
G3 X29.7314 Y8.5809 I0.8924 J0.0383
G3 X29.8527 Y8.374 I0.5194 J0.1653
G3 X30.2198 Y8.2202 I0.355 J0.3324
G3 X30.4993 Y8.3062 I0.0122 J0.4575
G3 X30.611 Y8.43 I-0.2732 J0.3587
G3 X30.6828 Y8.5807 I-0.6117 J0.3842
G1 X30.9904 Y8.5426
G2 X30.8913 Y8.3105 I-0.835 J0.2194
G2 X30.7209 Y8.1242 I-0.5944 J0.3727
G2 X30.4818 Y8.0083 I-0.4187 J0.5592
G2 X30.2182 Y7.9754 I-0.2615 J1.0217
G2 X29.8875 Y8.0292 I-0.0188 J0.9283
G2 X29.6072 Y8.2127 I0.2465 J0.6825
G2 X29.4295 Y8.5236 I0.5538 J0.5226
G2 X29.3814 Y8.8783 I1.1333 J0.3343
G2 X29.4297 Y9.2441 I1.3098 J0.0131
G2 X29.6096 Y9.5662 I0.7669 J-0.217
G2 X29.8791 Y9.7528 I0.5509 J-0.5079
G2 X30.2016 Y9.811 I0.3096 J-0.7935
G2 X30.5154 Y9.7536 I0.0126 J-0.8174
G2 X30.7771 Y9.5712 I-0.2796 J-0.6801
G2 X30.9459 Y9.2792 I-0.5797 J-0.53
G0 Z3.0
G0 X30.6624 Y9.207
G1 Z-1.0
G3 X30.6543 Y9.2363 I-0.8196 J-0.2088
G3 X30.5737 Y9.3942 I-0.4433 J-0.1268
G3 X30.2049 Y9.5662 I-0.3577 J-0.2856
G3 X29.8602 Y9.429 I-0.0122 J-0.4709
G3 X29.7481 Y9.26 I0.3307 J-0.3409
G3 X29.7055 Y9.0619 I0.5884 J-0.2301
G1 X30.6862
G3 X30.6624 Y9.207 I-0.8434 J-0.0637
G0 Z3.0
G0 X29.1108 Y9.048
G1 Z-1.0
G2 X29.1168 Y8.9197 I-1.1639 J-0.1192
G2 X29.0702 Y8.5499 I-1.2969 J-0.0243
G2 X28.8936 Y8.2218 I-0.7718 J0.2039
G2 X28.653 Y8.0393 I-0.5869 J0.5239
G2 X28.3578 Y7.9754 I-0.2885 J0.6189
G2 X28.0796 Y8.0408 I-0.0101 J0.5819
G2 X27.87 Y8.235 I0.281 J0.5133
G1 Y8.0151
G1 X27.5938
G1 Y10.4394
G1 X27.8915
G1 Y9.5745
G2 X28.1036 Y9.7507 I0.4934 J-0.3783
G2 X28.3727 Y9.811 I0.2582 J-0.5214
G2 X28.6795 Y9.7457 I0.0036 J-0.736
G2 X28.9176 Y9.5621 I-0.2494 J-0.5698
G2 X29.0639 Y9.2768 I-0.6803 J-0.5292
G2 X29.1108 Y9.048 I-1.1171 J-0.348
G0 Z3.0
G0 X28.8082 Y9.0206
G1 Z-1.0
G3 X28.7867 Y9.1601 I-1.1347 J-0.1029
G3 X28.6761 Y9.4025 I-0.5575 J-0.1078
G3 X28.5303 Y9.5229 I-0.3584 J-0.2858
G3 X28.3462 Y9.5662 I-0.1799 J-0.3512
G3 X28.1579 Y9.5206 I-0.0039 J-0.395
G3 X28.0089 Y9.3967 I0.2478 J-0.4499
G3 X27.8953 Y9.1639 I0.4547 J-0.3659
G3 X27.8667 Y8.9064 I1.0184 J-0.2436
G3 X27.8817 Y8.673 I1.5645 J-0.0165
G3 X27.9064 Y8.558 I1.2899 J0.2171
G3 X27.9527 Y8.45 I0.3843 J0.1007
G3 X28.1108 Y8.2821 I0.4434 J0.2592
G3 X28.333 Y8.2202 I0.217 J0.3491
G3 X28.5213 Y8.2658 I0.0039 J0.3951
G3 X28.6704 Y8.3897 I-0.2479 J0.45
G3 X28.7847 Y8.6301 I-0.4535 J0.363
G3 X28.8126 Y8.8948 I-1.1347 J0.2534
G3 X28.8082 Y9.0206 I-1.1391 J0.0229
G0 Z3.0
G0 X27.1374
G1 Z-1.0
G1 Y8.0151
G1 X26.8398
G1 Y9.0834
G3 X26.8336 Y9.2208 I-2.6685 J-0.0517
G3 X26.805 Y9.3554 I-0.6533 J-0.0681
G3 X26.6819 Y9.4993 I-0.2654 J-0.1026
G3 X26.4743 Y9.553 I-0.1985 J-0.3389
G3 X26.1461 Y9.4323 I-0.0093 J-0.4813
G3 X26.0722 Y9.3335 I0.2132 J-0.2366
G3 X26.0205 Y9.1574 I0.5706 J-0.2632
G3 X26.008 Y8.9742 I1.152 J-0.1704
G1 Y8.0151
G1 X25.7103
G1 Y9.7713
G1 X25.9782
G1 Y9.5216
G2 X26.2191 Y9.7409 I0.5359 J-0.3467
G2 X26.5372 Y9.811 I0.3065 J-0.634
G2 X26.829 Y9.7539 I0.0073 J-0.7376
G2 X27.0283 Y9.6043 I-0.1699 J-0.4336
G2 X27.1209 Y9.3843 I-0.4539 J-0.3206
G2 X27.1348 Y9.24 I-1.3543 J-0.2033
G2 X27.1374 Y9.0949 I-3.4924 J-0.1357
G1 Y9.0206
G0 Z3.0
G0 X25.2473
G1 Z-1.0
G1 Y8.751
G1 X25.2499 Y8.4882
G3 X25.2545 Y8.3568 I3.455 J0.0552
G1 X25.2563 Y8.324
G3 X25.2663 Y8.2259 I0.5625 J0.0078
G3 X25.3416 Y8.0151 I0.654 J0.1145
G1 X25.0307
G2 X24.9712 Y8.2317 I0.5686 J0.2728
G2 X24.8203 Y8.1191 I-1.1547 J1.3886
G2 X24.6528 Y8.0333 I-0.4939 J0.758
G2 X24.3246 Y7.9754 I-0.3181 J0.8443
G2 X24.089 Y8.0047 I-0.0194 J0.8071
G2 X23.8797 Y8.1168 I0.1336 J0.5007
G2 X23.7243 Y8.4781 I0.3109 J0.3478
G2 X23.783 Y8.7138 I0.4883 J0.0035
G2 X23.9368 Y8.8849 I0.4364 J-0.2375
G2 X24.1509 Y8.9825 I0.4089 J-0.6137
G2 X24.2164 Y8.9972 I0.2078 J-0.7728
G2 X24.3157 Y9.0138 I0.4435 J-2.3392
G2 X24.4155 Y9.0271 I0.2507 J-1.5011
G3 X24.6834 Y9.0659 I-0.4234 J3.8689
G3 X24.816 Y9.0928 I-0.2143 J1.3966
G3 X24.9464 Y9.1297 I-0.1613 J0.8195
G1 X24.948 Y9.2074
G3 X24.9323 Y9.3443 I-0.5547 J0.0058
G3 X24.8637 Y9.4637 I-0.2382 J-0.0575
G3 X24.7032 Y9.5445 I-0.2448 J-0.2864
G3 X24.5247 Y9.5646 I-0.1663 J-0.6757
G3 X24.3642 Y9.5509 I0.0029 J-0.9846
G3 X24.2146 Y9.491 I0.0552 J-0.3543
G3 X24.1189 Y9.3731 I0.2061 J-0.2651
G3 X24.0666 Y9.2305 I0.5372 J-0.278
G1 X23.7756 Y9.2702
G2 X23.8236 Y9.4286 I0.8492 J-0.1712
G2 X23.9062 Y9.572 I0.5131 J-0.1999
G2 X24.0253 Y9.6789 I0.4034 J-0.3296
G2 X24.1691 Y9.749 I0.3901 J-0.6183
G2 X24.5677 Y9.811 I0.3825 J-1.1464
G2 X24.7527 Y9.8003 I0.0177 J-1.3014
G2 X24.9331 Y9.7581 I-0.0689 J-0.7009
G2 X25.0449 Y9.7047 I-0.1732 J-0.5066
G2 X25.1398 Y9.6249 I-0.196 J-0.3297
G2 X25.2324 Y9.4224 I-0.3725 J-0.2927
G2 X25.241 Y9.3541 I-0.5205 J-0.1002
G2 X25.2473 Y9.1479 I-1.8667 J-0.1601
G1 Y9.0206
G0 Z3.0
G0 X24.9464 Y8.8965
G1 Z-1.0
G2 X24.7063 Y8.827 I-0.4892 J1.2398
G2 X24.5836 Y8.8034 I-1.0848 J5.3186
G2 X24.4602 Y8.7841 I-0.308 J1.5607
G3 X24.3287 Y8.7615 I0.1613 J-1.3317
G3 X24.2006 Y8.7245 I0.1513 J-0.766
G3 X24.0831 Y8.6278 I0.101 J-0.2422
G3 X24.0418 Y8.4864 I0.219 J-0.1408
G3 X24.1319 Y8.288 I0.2519 J-0.0053
G3 X24.2567 Y8.2246 I0.2027 J0.2445
G3 X24.3957 Y8.2086 I0.1373 J0.582
G3 X24.7016 Y8.2838 I0.0092 J0.6222
G3 X24.8984 Y8.4897 I-0.2162 J0.4036
G3 X24.9375 Y8.6361 I-0.4388 J0.1957
G3 X24.9464 Y8.7874 I-0.915 J0.1293
G1 Y8.8965
G0 Z3.0
G0 X23.4663 Y8.7841
G1 Z-1.0
G2 X23.335 Y8.4525 I-1.3093 J0.3267
G2 X23.1034 Y8.1813 I-0.8075 J0.4553
G2 X22.8009 Y8.0221 I-0.5799 J0.7347
G2 X22.4626 Y7.9738 I-0.3281 J1.0883
G2 X22.1324 Y8.0077 I-0.0255 J1.3765
G2 X21.8251 Y8.1333 I0.1931 J0.9106
G2 X21.4514 Y8.5955 I0.5522 J0.8287
G2 X21.3232 Y9.2454 I1.5126 J0.6359
G2 X21.3561 Y9.5844 I1.6198 J0.014
G2 X21.4679 Y9.9061 I1.223 J-0.2449
G2 X21.8797 Y10.3343 I0.8835 J-0.4374
G2 X22.4675 Y10.4807 I0.5745 J-1.0537
G2 X22.7887 Y10.4384 I0.0143 J-1.1324
G2 X23.0794 Y10.2955 I-0.2398 J-0.8547
G2 X23.2956 Y10.0638 I-0.5461 J-0.7265
G2 X23.425 Y9.7746 I-0.9384 J-0.5934
G1 X23.1091 Y9.7002
G3 X23.0164 Y9.9116 I-1.1061 J-0.3592
G3 X22.8644 Y10.0855 I-0.5122 J-0.2944
G3 X22.6726 Y10.1791 I-0.3479 J-0.4694
G3 X22.4609 Y10.2062 I-0.2014 J-0.7332
G3 X22.2168 Y10.1761 I-0.0041 J-0.9733
G3 X21.9938 Y10.0722 I0.1626 J-0.6404
G3 X21.73 Y9.7126 I0.4133 J-0.5797
G3 X21.6539 Y9.2471 I1.3689 J-0.4627
G1 X21.6551 Y9.1783
G3 X21.6797 Y8.9389 I1.596 J0.0431
G3 X21.7441 Y8.7072 I1.3577 J0.2523
G3 X21.8549 Y8.511 I0.7177 J0.2761
G3 X22.0244 Y8.3624 I0.4923 J0.3905
G3 X22.4361 Y8.2483 I0.4055 J0.6633
G3 X22.6783 Y8.2849 I0.0032 J0.7981
G3 X22.8925 Y8.4037 I-0.1929 J0.6004
G3 X23.0579 Y8.6131 I-0.4192 J0.5011
G3 X23.1455 Y8.8651 I-0.8977 J0.4534
G1 X23.4663 Y8.7841
G0 Z3.0
M5
M30
