( Made using CamBam - http://www.cambam.co.uk )
( Untitled 11/6/2012 5:32:43 PM )
( T1 : 0.5 )
G21 G90 G64 G40
G0 Z3.0
T1 M6
( Engrave1 )
G17
M3 S1000
G0 X63.64063 Y12.39063
G1 F100.0 Z-0.1
G1 F800.0 X66.88281
G3 X67.10457 I0.11088 J5.79555
G0 Z3.0
G0 X63.64063 Y3.73828
G1 F100.0 Z-0.1
G1 F800.0 Y12.39063
G1 Y28.23047
G0 Z3.0
G0 X57.19531 Y19.51953
G1 F100.0 Z-0.1
G1 F800.0 X55.4375
G3 X52.625 Y18.93359 I0.0064 J-7.0737
G3 X50.18359 Y17.3125 I3.35873 J-7.70728
G3 X48.44531 Y14.8125 I5.61273 J-5.75693
G3 X47.80078 Y11.58984 I7.27848 J-3.13148
G3 X48.42578 Y8.36719 I8.13803 J-0.09365
G3 X50.16406 Y5.88672 I6.81096 J2.92372
G3 X52.76172 Y4.30469 I5.43393 J5.99872
G3 X55.92578 Y3.75781 I3.10475 J8.53659
G1 X57.19531
G0 Z3.0
G0 X40.86719
G1 F100.0 Z-0.1
G1 F800.0 Y12.64453
G3 X40.28125 Y15.63281 I-7.42798 J0.09512
G3 X38.64063 Y17.95703 I-5.82931 J-2.37365
G3 X36.12109 Y19.46094 I-5.14908 J-5.76392
G3 X32.91797 Y20.00781 I-3.09251 J-8.45923
G3 X29.63672 Y19.38281 I-0.08601 J-8.47425
G3 X27.05859 Y17.64453 I3.00392 J-7.23625
G3 X25.37891 Y15.02734 I5.59096 J-5.43583
G3 X24.79297 Y11.6875 I8.56302 J-3.2236
G3 X25.37891 Y8.28906 I9.51722 J-0.10883
G3 X27.05859 Y5.63281 I7.67652 J2.99507
G3 X29.63672 Y3.89453 I5.58204 J5.49797
G3 X32.91797 Y3.26953 I3.19524 J7.84925
G3 X35.90625 Y4.03125 I0.16466 J5.59652
G0 Z3.0
G0 X18.42578 Y3.75781
G1 F100.0 Z-0.1
G1 F800.0 Y13.19141
G3 X18.05469 Y15.57422 I-7.97614 J-0.02188
G3 X16.92188 Y17.74219 I-5.83121 J-1.66699
G3 X14.94922 Y19.30469 I-4.44894 J-3.5903
G3 X12.09766 Y19.91016 I-2.67762 J-5.59304
G3 X9.20703 Y19.30469 I-0.1309 J-6.57802
G3 X7.17578 Y17.74219 I2.44474 J-5.27973
G3 X5.96484 Y15.57422 I5.13455 J-4.29012
G3 X5.55469 Y13.19141 I6.87314 J-2.40979
G0 Z3.0
G0 Y3.75781
G1 F100.0 Z-0.1
G1 F800.0 Y13.19141
G1 Y28.23047
G0 Z3.0
G0 X74.12891 Y19.42188
G1 F100.0 Z-0.1
G1 F800.0 X72.23438 Y16.19922
G2 X71.29688 Y14.69531 I-26.26146 J15.32662
G2 X70.24219 Y13.48438 I-4.45564 J2.81595
G2 X68.81641 Y12.68359 I-3.23249 J4.08573
G2 X67.10457 Y12.39063 I-1.82272 J5.50258
G1 X69.40234
G2 X71.26678 Y12.08645 I0.1554 J-4.91351
G2 X72.87891 Y11.10156 I-1.56743 J-4.37755
G2 X73.98123 Y9.41851 I-2.6857 J-2.96153
G2 X74.28516 Y7.42969 I-5.74921 J-1.8962
G1 Y3.75781
G0 Z3.0
G0 X94.79297 Y3.73828
G1 F100.0 Z-0.1
G1 F800.0 X92.56641
G2 X88.30859 Y4.53906 I0.01711 J11.8109
G2 X84.59766 Y6.90234 I4.03889 J10.43724
G2 X81.94141 Y10.73047 I8.33747 J8.6208
G2 X80.92578 Y15.98438 I11.85283 J5.01637
G2 X81.76563 Y20.37891 I12.29418 J-0.07204
G2 X84.22656 Y24.32422 I11.20323 J-4.24798
G2 X88.26953 Y27.13672 I9.02221 J-8.6573
G2 X90.97447 Y27.98056 I4.82477 J-10.70856
G2 X93.79688 Y28.23047 I2.57411 J-13.00857
G1 X94.79297
G0 Z3.0
G0 X118.07422
G1 F100.0 Z-0.1
G1 F800.0 Y5.98438
G2 X117.99609 Y4.63672 I-9.51855 J-0.12429
G2 X117.78125 Y3.89453 I-2.4958 J0.32028
G2 X117.44922 Y3.58203 I-0.61793 J0.32391
G2 X117.07813 Y3.50391 I-0.3675 J0.8252
G2 X116.51172 Y3.54297 I-0.02534 J3.75855
G2 X116.02344 Y3.81641 I0.22645 J0.97705
G2 X115.49609 Y4.55859 I3.62501 J3.13411
G2 X114.75391 Y5.98438 I22.56324 J12.65131
G1 X105.28125 Y25.53516
G3 X104.42188 Y27.11719 I-15.95039 J-7.63998
G3 X103.81641 Y27.99609 I-5.86485 J-3.39223
G3 X103.30859 Y28.38672 I-0.9217 J-0.67282
G3 X102.83984 Y28.48438 I-0.47658 J-1.11376
G3 X102.35156 Y28.38672 I0.01844 J-1.36171
G3 X101.88281 Y28.05469 I0.42521 J-1.09719
G3 X101.55078 Y27.27344 I1.52242 J-1.10821
G3 X101.43359 Y25.86719 I6.81603 J-1.27601
G1 Y3.75781
G0 Z3.0
G0 X139.22656 Y3.73828
G1 F100.0 Z-0.1
G1 F800.0 X137.0
G2 X132.74219 Y4.53906 I0.01711 J11.8109
G2 X129.03125 Y6.90234 I4.03889 J10.43724
G2 X126.375 Y10.73047 I8.33747 J8.6208
G2 X125.35938 Y15.98438 I11.85283 J5.01637
G2 X126.19922 Y20.37891 I12.29418 J-0.07204
G2 X128.66016 Y24.32422 I11.20323 J-4.24798
G2 X132.70313 Y27.13672 I9.02221 J-8.6573
G2 X135.40806 Y27.98056 I4.82477 J-10.70856
G2 X138.23047 Y28.23047 I2.57411 J-13.00857
G1 X139.22656
G0 Z3.0
G0 X0 Y0
M5
M30
